X:1
T: The Humors of Ballinlass
C:
R:Reel
Q: 232
K:G
M:4/4
L:1/8
|:GE|D2 EF G2 G2|c3A BA GB|cB cd e2 fB|((3cBA) BG EA GE|
D2 EF G2 B2|c2 cA Bd gd|((3BdB) GB ((3AcA) FA|1G2 GF G2 GE:|2G2 GF G2 ef|
|:gf ed e2 ef|ge de d3B|cB cd e2 dB|
|1((3cBA) BG E2 ef|gf ed ed ef|ge de d2 c2|((3BdB) GB ((3AcA) FA|G2 GF G2 ef:|
|2((3cBA) BG EA GE|D2 EF G2 B2|c2 cA Bd gd|((3BdB) GB ((3AcA) FA|G2 GF G2||
